X: 419
T: The Mountain Top
N:"With spirit" "collected by Ennis"
N:Irish title: mulla.c na slei.be
B:O'Neill's 419
Z:Transcribed by henrik.norbeck@mailbox.swipnet.se
M:6/8
L:1/8
K:F
(A/G/) | F>ED FGA | c3 d2 (c/d/) | A>GF G2 F | F3- F2 A |
cdA cde | f3 e2 f | gec d2 c | c3- c2 A |
cdA cde | f3 gfe | d>cA cde | f3- f2 (A/G/) |
F>ED FGA | c3 d2 c | AGF G2 F | F3 z ||


